X: 4420
T: "OCEAN" WALTZ
R: Waltz
%R: waltz
B: James Kerr "Merry Melodies" v.4 p.46 #420
Z: 2016 John Chambers <jc:trillian.mit.edu>
M: 3/4
L: 1/4
K: D
|: !p!\
A3 | B3 | ADE | F3 | (FE)A, | (FE)A, | (A,2D) | (D/C/D/E/F/G/) |\
A3 | B3 | ADE | F3 | (EA)B | (cd)c | (c2B) | A3 :|
|:\
BBB | BBB | Bc^d | efg | AAA | AAA | ABc | def |\
(f2e) | Be>f | (e2d) | Ad>e | dcB | cAe | d3- | dzz H:|

%%sep 1 1 500
%%sep 1 1 500

